src/lib/packages/icons/src/assets/filled/alarm-times.svg

<svg width="24" height="24" viewBox="0 0 24 24" fill="none" xmlns="http://www.w3.org/2000/svg">
<path fill-rule="evenodd" clip-rule="evenodd" d="M5.53005 3.53005L3.53005 5.53005C3.38405 5.67605 3.19202 5.75002 3.00002 5.75002C2.80802 5.75002 2.61599 5.67705 2.46999 5.53005C2.17699 5.23705 2.17699 4.76202 2.46999 4.46902L4.46999 2.46902C4.76299 2.17602 5.23803 2.17602 5.53103 2.46902C5.82403 2.76202 5.82305 3.23705 5.53005 3.53005ZM21.5249 4.46401L19.5249 2.50405C19.2289 2.21405 18.7549 2.21904 18.4629 2.51504C18.1739 2.81104 18.1791 3.28607 18.4741 3.57607L20.4741 5.53603C20.6201 5.67903 20.81 5.75002 20.999 5.75002C21.193 5.75002 21.3879 5.67505 21.5349 5.52505C21.8249 5.22905 21.8199 4.75401 21.5249 4.46401ZM16.6021 18.5371L18.531 20.471C18.823 20.764 18.8231 21.239 18.5291 21.532C18.3831 21.678 18.191 21.751 18 21.751C17.808 21.751 17.615 21.6771 17.469 21.5301L15.251 19.3059C14.257 19.7489 13.159 20 12.001 20C10.843 20 9.745 19.7489 8.751 19.3059L6.53201 21.5301C6.38601 21.6761 6.193 21.75 6.001 21.75C5.81 21.75 5.61795 21.677 5.47195 21.531C5.17795 21.239 5.17799 20.763 5.46999 20.47L7.39895 18.5371C5.34595 17.0891 4.001 14.703 4.001 12C4.001 7.58202 7.583 4.00002 12.001 4.00002C16.419 4.00002 20.001 7.58202 20.001 12C20 14.703 18.6561 17.0891 16.6021 18.5371ZM13.0611 12L14.531 10.5301C14.824 10.2371 14.824 9.76202 14.531 9.46902C14.238 9.17602 13.763 9.17602 13.47 9.46902L12 10.939L10.5301 9.46902C10.2371 9.17602 9.76202 9.17602 9.46902 9.46902C9.17602 9.76202 9.17602 10.2371 9.46902 10.5301L10.939 12L9.46902 13.47C9.17602 13.763 9.17602 14.238 9.46902 14.531C9.61502 14.677 9.80705 14.751 9.99905 14.751C10.191 14.751 10.3831 14.678 10.5291 14.531L11.999 13.0611L13.469 14.531C13.615 14.677 13.807 14.751 13.999 14.751C14.191 14.751 14.3831 14.678 14.5291 14.531C14.8221 14.238 14.8221 13.763 14.5291 13.47L13.0611 12Z" fill="currentColor"/>
</svg>

<svg xmlns="http://www.w3.org/2000/svg" width="24" height="24" fill="none"><path fill="currentColor" fill-rule="evenodd" d="m5.53 3.53-2 2a.748.748 0 0 1-1.06 0 .75.75 0 0 1 0-1.061l2-2A.75.75 0 1 1 5.53 3.53Zm15.995.934-2-1.96a.751.751 0 0 0-1.05 1.072l2 1.96a.748.748 0 0 0 1.06-.01.751.751 0 0 0-.01-1.062Zm-4.923 14.073 1.929 1.934a.75.75 0 0 1-1.062 1.06l-2.218-2.225a7.96 7.96 0 0 1-6.5 0L6.532 21.53a.75.75 0 0 1-1.062-1.06l1.929-1.933A7.986 7.986 0 0 1 4 12a8 8 0 0 1 16 0 7.987 7.987 0 0 1-3.399 6.537ZM13.062 12l1.469-1.47a.75.75 0 0 0-1.061-1.06L12 10.939l-1.47-1.47a.75.75 0 0 0-1.06 1.061L10.94 12l-1.47 1.47a.75.75 0 0 0 1.06 1.061l1.47-1.47 1.47 1.47a.748.748 0 0 0 1.06 0 .75.75 0 0 0 0-1.061L13.061 12Z" clip-rule="evenodd"/></svg>
